X:070
U: ~ = !turn!
%%topmargin 3cm
T:Fedora
B:Traditional Irish Fiddle Tunes. Randy Miller and Jack Perron.
Z:Transcribed by Ralph Palmer
R:Reel
M:C|
L:1/8
K:D
F2 | GBEG B2 AF | GFGA B2 AG | FADF ADFA | dcdB AFDF |
GBEG B2 AF | GFGA BABc | dc ((3dcB) AGFA | GE{/F}ED E2 :|
F2 |: Beed e2 ef | gefd edBA | ^GABc d2 Bc | dfaf gfed |
Beed edef | ((3gfe) fd edBc | dc ((3dcB) AGFA | GE{/F}ED E2 :|]
